X: 170
T: No_7_Processional.krn
N: Derived from No_7_Processional.krn
%%abc-version 2.0
%%abcx-abcm2ps-target-version 5.9.1 (29 Sep 2008)
%%abc-creator hum2abc beta
%%abcx-conversion-date 2019/03/15 08:29:13
%%humdrum-veritas 2506751388
%%humdrum-veritas-data 1075422797
%%linebreak <none>
%%barnumbers 0
L: 1/4
M: 5/4
K: Bb clef=bass
[K:clef=bass][M:5/4]!accent!D/D/D!accent!D/D/DC ||  
[M:4/4]B,/G,/G,G,z ||  
[M:5/4]B,/B,/B,B,/B,/CC ||  
[M:4/4]B,/G,/G,(G,F,) ||  
[M:5/4]G,/G,/G,G,/G,/F,F, ||  
[M:4/4]D,/D,/D,D,2 | 
!accent!G,G,!accent!G,G, | 
!accent!G,/G,/G,(G,F,) ||  
[M:5/4]G,/G,/G,G,/G,/G,G, ||  
[M:4/4]G,/G,/G,G,2 ||  
[M:5/4]B,/B,/B,B,/B,/CC ||  
[M:4/4]B,/G,/G,(G,F,) ||  
[M:5/4]G,/G,/G,G,/G,/G,F, ||  
[M:4/4]D,/D,/D,D,2 |]  



